X: 41738
T: Valse Des Bébés
R: waltz
M: 3/4
K: Amajor
|:f2- fe cA|E2- EA AF|G6-|G4 e2|f2- fe dB|G2- GE FE|c6-|c2 z2 e2|
f2- fe cA|E2- EA AF|G6-|G4 e2|g2 f2 (3efe|d2 F2 G2|A2 Ac ec|1 A2 z2 e2:|2 A2 z4||

